X:1
T:James Gibb editions
T:The Harvest-tide Thanksgiving - Barnby
T:#
%%score [ ( 1 2 ) ( 3 4 ) ] { ( 5 6 ) | ( 7 8 ) }
L:1/8
Q:1/4=200
M:none
K:C
V:1 treble nm="Soprano Alto" snm="S A"
V:2 treble 
V:3 bass nm="Tenor Bass" snm="T B"
V:4 bass 
V:5 treble nm="Organ"
V:6 treble 
V:7 bass 
V:8 bass 
V:1
"^Rev. S. Childs Clarke""^The Harvest-tide Thanksgiving""^Joseph Barnby\n(1838-96)" z16 x14 || %1
w: |
w: |
 z16 |!ff! !>!G16 x16 | !>!G4 !>!^G4 !>!A8 x16 | A16 | A4 A4 B4 A4 | G6 c2 c4 d4 | d8 c8 || %8
w: |1.Great~Giver~of|Thee a- gain:|We~humbly~|joy- ous strain, Our|Har- vest- tide Thanks-|giv- ing.|
w: |all~good,~to||now~present,~in~||||
[M:2/2] G16 | G4 ^G4 x24 | A8 x8 || A16 |[M:2/2] A4 A4 x8 | B4 A4 x8 | G6 c2 x8 | c4 d4 x8 | %16
w: 2.To~Thee,~in~Whom|move, we|come:|To~praise~Thee~for|safe- ly|home, With|Har- vest-|tide Thanks-|
w: we~live~and|||the~sheaves~brought|||||
 d8 x8 | c8 x32 ||!mf! G16 | G4 ^G4 A8 |[M:2/2] A16 | A4 A4 x8 | B4!f! A4 x8 | G6 c2 x24 | %24
w: giv-|ing.|3.Thou~dost~prepare|year by year:|Before~Thine|we ap-|pear, With|Har- vest-|
w: ||our~corn,~and||altar,~Lord,~will||||
 c4 d4 x8 | d8 x8 || c8 x8 ||!mf! G16 |[M:2/2] G4 ^G4 x8 | A8 x24 || A16 | A4 A4 x8 | B4!f! A4 x8 | %33
w: tide Thanks-|giv-|ing.|4.Thine~was~the|lat- ter|rain:|Enriching~earth,|forth a-|gain The|
w: |||former~and~the|||and~calling|||
 G6 c2 x8 | c4 d4 x8 | d8 x8 | c8 x8 ||[K:E] x16 |[M:2/2]!mp! B16 | A4 G4 x24 | F8 x8 || A16 | %42
w: Har- vest-|tide Thanks-|giv-|ing.||5.Thou~openest~wide,|boun- teous|hand:|And~far~and~wide|
w: |||||Great~God,~Thy|||ascends~from|
 G4 F4 x8 | E4!f! G4 x8 | B6 B2 x8 | A4 E4 x24 | F8 x8 | E8 x8 ||!mp! B16 | A4 G4 F8 |[M:2/2] A16 | %51
w: all the|land Glad|Har- vest-|tide Thanks-|giv-|ing.|6.Thou~fillest|plen- teous- ness:|They,~in~return|
w: ||||||all~that~live~with||Thy~sacred|
 G4 F4 x8 | E4!f! G4 x8 | B6 B2 x8 | A4 E4 x40 | F8 x8 | E8 x8 ||!mp! B16 x16 | A4 G4 F8 || A16 | %60
w: name should|bless in|Har- vest-|tide Thanks-|giv-|ing.|7.Thy~clouds~drop|teem- ing earth:|Accept~these|
w: ||||||fatness~on~the||festal~songs~of|
 G4 F4 E4!f! G4 x16 | B6 B2 A4 E4 |[M:2/2] F8 x8 | E8 x24 ||!mp! B16 | A4 G4 F8 || A16 | %67
w: reve- rent mirth, This|Har- vest- tide Thanks-|giv-|ing.|8.The~year~is~crown'd|Lord, by Thee:|Then~meet~it~is|
w: ||||with~goodness,||that~aye~should|
 G4 F4 E4!f! G4 x14 |[M:2/2] B6 B2 x8 | A4 E4 x24 | F8 x8 | E8 x8 ||[K:C]!mf! G16 | G4 ^G4 A8 || %74
w: of- fer'd be The|Har- vest-|tide Thanks-|giv-|ing.|9.On~every~side|hills re- joice:|
w: |||||the~little||
 A16 x14 | A4 A4 B4 A4 | G6 c2 c4 d4 | d8 c8 x8 ||!mf! G16 x8 | G4 ^G4 A8 | A16 | A4 A4 B4!f! A4 | %82
w: on~every~side|grate- ful voice of|Har- vest- tide Thanks-|giv- ing.|10.The~valleys,~thick|laugh and sing:|let~all~who~sow|ge- ther bring their|
w: sounds~forth~the||||with~corn,~do||and~reap,~to-||
 G6 c2 c4 d4 | d8 c8 ||!mf! G16 | G4 ^G4 A8 || A16 | A4 A4 B4!f! A4 | G6 c2 c4 d4 | d8 c8 || c16 | %91
w: Har- vest- tide Thanks-|giv- ing.|11.For~all~the|mer- cy gave:|Praise~we~with|that we have in|Har- vest- tide Thanks-|giv- ing.|12.To~Thee,|
w: ||blessings,~Lord,~Thy||this~best~member||||O~Trinity,~in|
 c4 B4 A8 || A16 | A4 G4 F4 G4 | E6 F2 G4 C4 | D8 C8 | (C8- C8 G8) | c16 | %98
w: U- ni- ty:|All~glory,~laud|ho- mage be in|Har- vest- tide Thanks-|giv- ing.|A- * *|men.|
w: |and~endless||||||
V:2
 [xx]30 || x16 | G4 ^G4 x8 ^C16 | D4 F4 F4 D4 x16 | x16 | x16 | G4 C4 C4 F4 | F8 E8 ||[M:2/2] E16 | %9
 C4 D4 x24 | C8 x8 || ^C16 |[M:2/2] D4 F4 x8 | F4 D4 x8 | G4 C4 x8 | C4 F4 x8 | F8 x8 | E8 x32 || %18
 E16 | C4 D4 C8 |[M:2/2] ^C16 | D4 F4 x8 | F4 D4 x8 | G4 C4 x24 | C4 F4 x8 | F8 x8 || E8 x8 || %27
 E16 |[M:2/2] C4 D4 x8 | C8 x24 || ^C16 | D4 F4 x8 | F4 D4 x8 | G4 C4 x8 | C4 F4 x8 | F8 x8 | %36
 E8 x8 ||[K:E] x16 |[M:2/2] E16 | E4 E4 x24 | C8 x8 || D16 | D4 D4 x8 | E4 E4 x8 | =D6 D2 x8 | %45
 C4 E4 x24 | (E4 D4) x8 | E8 x8 || E16 | E4 E4 C8 |[M:2/2] D16 | D4 D4 x8 | E4 E4 x8 | =D6 D2 x8 | %54
 C4 E4 x40 | E4 D4 x8 | E8 x8 || E16 x16 | E4 E4 C8 || D16 | D4 D4 E4 E4 x16 | =D6 D2 C4 E4 | %62
[M:2/2] (E4 D4) x8 | E8 x24 || E16 | E4 E4 C8 || D16 | D4 D4 E4 E4 x14 |[M:2/2] =D6 D2 x8 | %69
 C4 E4 x24 | E4 D4 x8 | E8 x8 ||[K:C] E16 | C4 D4 C8 || ^C16 x14 | D4 F4 F4 D4 | G4 C4 C4 F4 | %77
 F8 E8 x8 || E16 x8 | C4 D4 C8 | ^C16 | D4 F4 F4 D4 | G4 C4 C4 F4 | F8 E8 || E16 | C4 D4 C8 || %86
 ^C16 | D4 F4 F4 D4 | G4 C4 C4 F4 | F8 E8 || C16 | C4 B,4 A,8 || x16 | A4 G4 F4 D4 | C4 C4 C4 C4 | %95
 (C4 B,4) C8 | (_B,8 A,8 D8) | E16 | %98
V:3
 z16 x14 || z16 | !>!G,16 x16 | !>!G,4 !>!^G,4 !>!A,8 x16 | G,16 | F,4 A,4 G,4 B,4 | %6
 C4 _B,4 A,4 C4 | (C4 B,4) C8 || G,16 | C4 B,4 A,8 x16 | G,16 || F,4 A,4 G,4 B,4 | C4 _B,4 A,4 C4 | %13
 (C4 B,4) C8 | G,16 | C4 B,4 A,8 | G,16 | F,4 A,4 G,4 B,4 x24 || C4 _B,4 A,4 C4 | (C4 B,4) C8 | %20
 G,16 | C4 B,4 A,8 | G,16 | F,4 A,4 G,4 B,4 x16 | C4 _B,4 A,4 C4 | (C4 B,4) C8 || ^G,16 || %27
 ^C4 B,4 A,8 | ^F,14 ^C2 | B,4 A,4 ^G,4 E,4 x16 || E,6 E,2 E,4 A,4 | A,8 ^G,8 | ^G,16 | %33
 ^C4 B,4 A,8 | ^F,14 ^C2 | B,4 A,4 ^G,4 E,4 | E,6 E,2 E,4 A,4 || A,8 ^G,8 | ^G,16 | %39
 ^C4 B,4 A,8 x16 | ^F,14 ^C2 || B,4 A,4 ^G,4 E,4 | E,6 E,2 E,4 A,4 | A,8 ^G,8 | ^G,16 | %45
 ^C4 B,4 A,8 x16 | ^F,14 ^C2 | B,4 A,4 ^G,4 E,4 || E,6 E,2 E,4 A,4 | A,8 ^G,8 |[K:C] G,16 | %51
 C4 B,4 A,8 | G,16 | F,4 A,4 G,4 B,4 | C4 _B,4 A,4 C4 x32 | C4 B,4 C8 | G,16 || C4 B,4 A,8 x16 | %58
 G,16 || F,4 A,4 G,4 B,4 | C4 _B,4 A,4 C4 x16 | (C4 B,4) C8 | G,16 | C4 B,4 A,8 x16 || G,16 | %65
 F,4 A,4 G,4 B,4 || C4 _B,4 A,4 C4 | (C4 B,4) C8 x14 | C16 | C4 B,4 A,8 x16 | A,16 | %71
 A,4 G,4 F,4 G,4 || G,4 F,4 _B,4 A,4 | F,8 E,8 || (G,8 A,8 B,8) x6 | G,16 | x16 | x24 || x24 | %79
 x16 | x16 | x16 | x16 | x16 || x16 | x16 || x16 | x16 | x16 | x16 || x16 | x16 || x16 | x16 | %94
 x16 | x16 | x24 | x16 | %98
V:4
 x16 x14 || x16 | x16 x16 | G,4 ^G,4 x8 E,16 | D,4 D,4 G,,4 F,4 | x16 | E,4 E,4 F,4 D,4 | %7
 G,8 C,8 || C,16 | E,4 E,4 F,8 x16 | E,16 || D,4 D,4 G,,4 F,4 | E,4 E,4 F,4 D,4 | G,8 C,8 | C,16 | %15
 E,4 E,4 F,8 | E,16 | D,4 D,4 G,,4 F,4 x24 || E,4 E,4 F,4 D,4 | G,8 C,8 | C,16 | E,4 E,4 F,8 | %22
 E,16 | D,4 D,4 G,,4 F,4 x16 | E,4 E,4 F,4 D,4 | G,8 C,8 || E,16 || E,4 E,4 E,8 | B,,16 | %29
 B,,4 B,,4 ^C,4 C,4 x16 || ^G,,6 G,,2 A,,4 ^C,4 | B,,8 E,8 | E,16 | E,4 E,4 E,8 | B,,16 | %35
 B,,4 B,,4 ^C,4 C,4 | ^G,,6 G,,2 A,,4 ^C,4 || B,,8 E,8 | E,16 | E,4 E,4 E,8 x16 | B,,16 || %41
 B,,4 B,,4 ^C,4 C,4 | ^G,,6 G,,2 A,,4 ^C,4 | B,,8 E,8 | E,16 | E,4 E,4 E,8 x16 | B,,16 | %47
 B,,4 B,,4 ^C,4 C,4 || ^G,,6 G,,2 A,,4 ^C,4 | B,,8 E,8 |[K:C] C,16 | E,4 E,4 F,8 | E,16 | %53
 D,4 D,4 G,,4 F,4 | E,4 E,4 F,4 D,4 x32 | G,8 C,8 | C,16 || E,4 E,4 F,8 x16 | E,16 || %59
 D,4 D,4 G,,4 F,4 | E,4 E,4 F,4 D,4 x16 | G,8 C,8 | C,16 | E,4 E,4 F,8 x16 || E,16 | %65
 D,4 D,4 G,,4 F,4 || E,4 E,4 F,4 D,4 | G,8 C,8 x14 | x16 | x16 x16 | x16 | A,4 G,4 F,4 B,,4 || %72
 C,4 A,,4 E,4 F,4 | G,,8 A,,8 || (E,8 F,8 G,8) x6 | C,16 | x16 | x24 || x24 | x16 | x16 | x16 | %82
 x16 | x16 || x16 | x16 || x16 | x16 | x16 | x16 || x16 | x16 || x16 | x16 | x16 | x16 | x24 | %97
 x16 | %98
V:5
!ff! !>!G16 x14 || !>!G4 !>!^G4 !>!A8 | z16 x16 | z16 x16 | [^CEA]16 | [DFA]8 [B,DFB]4 [B,DA]4 | %6
 G6 c2 [CFc]4 [FAd]4 | [Fd]8 [EGc]8 ||!ff! [CEG]16 | [CEG]4 [D^G]4 [CA]8 x16 | [^CEA]16 || x16 | %12
 [DFA]8 [B,DFB]4 [B,DA]4 | G6 c2 [CFc]4 [FAd]4 | [Fd]8 [EGc]8 | [EG]16 | [CG]4 [D^G]4 [CA]8 | %17
 x40 || [^CEA]16 | [DFA]8 [B,DFB]4 [B,DA]4 | G6 c2 [CFc]4 [FAd]4 | [Fd]8 [EGc]8 | [EG]16 | x32 | %24
 [CG]4 [D^G]4 [CA]8 | [^CEA]16 || [DFA]8 [B,DFB]4 [B,DA]4 || G6 c2 [CFc]4 [FAd]4 | [Fd]8 [EGc]8 | %29
[K:E] x32 ||"^Full Sw." [EB]16 | [CEA]4 [EG]4 [CF]8 | A16 | G4 F4 E4 [EG]4 | [=DEB]8 [CEA]4 E4 | %35
 [B,F]8 E8 |"^Sw. Org." [EB]16 || [CEA]4 [EG]4 [CF]8 | A16 | G4 F4 E4 [EG]4 x16 | %40
 [=DEB]8 [CEA]4 E4 || [B,F]8 E8 |"^Sw. Org." [EB]16 | [CEA]4 [EG]4 [CF]8 | A16 | %45
 G4 F4 E4 [EG]4 x16 | [=DEB]8 [CEA]4 E4 | [B,F]8 E8 ||"^Sw. Org." [EB]16 | [CEA]4 [EG]4 [CF]8 | %50
 A16 | G4 F4 E4 [EG]4 | [=DEB]8 [CEA]4 E4 | [B,F]8 E8 |[K:C] [EG]16 x32 | [CG]4 [D^G]4 [CA]8 | %56
 [^CEA]16 || [DFA]8 [B,DFB]4 [B,DA]4 x16 | G6 c2 [CFc]4 [FAd]4 || [Fd]8 [EGc]8 | [EG]16 x16 | %61
 [CG]4 [D^G]4 [CA]8 | [^CEA]16 | [DFA]8 [B,DFB]4 [B,DA]4 x16 || G6 c2 [CFc]4 [FAd]4 | %65
 [Fd]8 [EGc]8 || [EG]16 | [CG]4 [D^G]4 [CA]8 x14 | [^CEA]16 | [DFA]8 [B,DFB]4 [B,DA]4 x16 | %70
 G6 c2 [CFc]4 [FAd]4 | [Fd]8 [EGc]8 || [EAc]16 | [CEAc]4 [B,EGB]4 [A,CFA]8 || [A,CFA]16 x14 | %75
 [A,CFA]4 [G,B,EG]4 [F,A,DF]4 [G,DG]4 | E6 F2 G4 [A,C]4 | [A,CD]4- [G,B,D]4 C8 x8 || %78
 [_B,C-]8 [A,C]8 [=B,D]8 | [CE]16 | x16 | x16 | x16 | x16 || x16 | x16 || x16 | x16 | x16 | x16 || %90
 x16 | x16 || x16 | x16 | x16 | x16 | x24 | x16 | %98
V:6
 x16 x14 || x16 | z16 x16 | z16 x16 | x16 | D4 C4 x8 | C8 x8 | A4 G4 x8 || x16 | x16 x16 | x16 || %11
 x16 | D4 C4 x8 | C8 x8 | A4 G4 x8 | x16 | x16 | x40 || x16 | D4 C4 x8 | C8 x8 | A4 G4 x8 | x16 | %23
 x32 | x16 | x16 || D4 C4 x8 || C8 x8 | A4 G4 x8 |[K:E] x32 || x16 | x16 | D14 C2 | D8 x8 | x16 | %35
 E4 D4 x8 | x16 || x16 | D14 C2 | D8 x8 x16 | x16 || E4 D4 x8 | x16 | x16 | D14 C2 | D8 x8 x16 | %46
 x16 | E4 D4 x8 || x16 | x16 | D14 C2 | D8 x8 | x16 | E4 D4 x8 |[K:C] x16 x4 x28 | x16 | x16 || %57
 D4 C4 x8 x16 | C8 C4 F4 || A4 G4 x8 | x16 x4 x12 | x16 | x16 | D4 C4 x8 x16 || C8 x8 | A4 G4 x8 || %66
 x16 | [xx]30 | D4 =C4 x8 | C8 x8 x16 | A4 G4 x8 | x16 || x16 | x16 || [xx]30 | C8- [_B,C]4 x4 | %76
 x16 | x16 x8 || x16 x8 | x16 | x16 | x16 | x16 | x16 || x16 | x16 || x16 | x16 | x16 | x16 || %90
 x16 | x16 || x16 | x16 | x16 | x16 | x24 | x16 | %98
V:7
"^Full Org." !>![G,,G,]16 x14 || !>![G,,G,]4 !>![^G,,^G,]4 !>![A,,A,]8 | z16 x16 | z16 x16 | %4
 [A,,E,G,]16 | F,4 A,4 G,4 F,4 | E,4- [E,_B,]4 [F,A,]4 [D,F,A,C]4 | C4 B,4 x8 || [C,G,C]8 x8 | %9
 G,16 x16 | G,4 B,4 A,8 || [A,,E,G,]16 | F,4 A,4 x8 | G,4 F,4 x8 | E,4- [E,_B,]4 x8 | %15
 [F,A,]4 [D,F,A,C]4 x8 | C4 B,4 x8 | [C,G,C]8 x32 || [A,,E,G,]16 | F,4 A,4 x8 | %20
 G,4"^Gt. Org." F,4 x8 | E,4- [E,_B,]4 x8 | [F,A,]4 [D,F,A,C]4 x8 | C4 B,4 x24 | G,4 B,4 x8 | %25
 A,8 x8 || [A,,E,G,]16 || F,4 A,4 x8 | G,4"^Gt. Org." F,4 x8 |[K:E] E,4- [E,_B,]4 x24 || G,16 | %31
 A,4 B,4 A,8 | F,16 | B,4 A,4 G,4"^Gt. Org." E,4 | E,8 E,4 A,4 | A,8 G,8 | G,16 || A,4 B,4 A,8 | %38
 F,16 | B,4 A,4 G,4"^Gt. Org." E,4 x16 | E,8 E,4 A,4 || A,8 G,8 | G,16 | A,4 B,4 A,8 | F,16 | %45
 B,4 A,4 G,4"^Gt. Org." E,4 x16 | E,8 E,4 A,4 | A,8 G,8 || G,16 | A,4 B,4 A,8 | F,16 | %51
 B,4 A,4 G,4"^Gt. Org." E,4 | E,8 E,4 A,4 | A,8 G,8 |[K:C]"^Ch. Org." [C,G,]16 x32 | %55
 G,4 B,4 [F,A,]8 | [A,,E,G,]16 || F,4 A,4 [G,,G,]4"^Gt. Org." [F,,F,]4 x16 | %58
 E,4 [E,_B,]4 [F,A,]4 [D,F,A,C]4 || C4 B,4 [C,G,C]8 |"^Ch. Org." [C,G,]16 x16 | G,4 B,4 [F,A,]8 | %62
 [A,,E,G,]16 | F,4 A,4 [G,,G,]4"^Gt. Org." [F,,F,]4 x16 || E,4 [E,_B,]4 [F,A,]4 [D,F,A,C]4 | %65
 C4 B,4 [C,G,C]8 ||"^Ch. Org." [C,G,]16 | G,4 B,4 [F,A,]8 x14 | [A,,E,G,]16 | %69
 F,4 A,4 [G,,G,]4"^Gt. Org." [F,,F,]4 x16 | E,4 [E,_B,]4 [F,A,]4 [D,F,A,C]4 | C4 B,4 [C,G,C]8 || %72
 [A,,E,A,]16 | [A,,E,A,]4 [E,,E,]4 [F,,F,]8 || [F,,F,]16 x14 | [F,,F,]4 [^C,,^C,]4 [D,,D,]4 B,,4 | %76
 [C,G,]4 [A,,A,]4 [E,,E,]4 [F,,F,]4 | [G,,F,]8 [A,,E,]8 x8 || [G,,E,]8 [F,,F,]8 F,8 | [E,G,]16 | %80
 x16 | x16 | x16 | x16 || x16 | x16 || x16 | x16 | x16 | x16 || x16 | x16 || x16 | x16 | x16 | %95
 x16 | x24 | x16 | %98
V:8
 x16 x14 || x16 | z16 x16 | z16 x16 | x16 | D,8 G,,4 F,,4 | E,,8 F,,4 D,,4 | [G,,G,]8 x8 || %8
 C,,8 x8 | C,16 E,8 F,8 | x16 || x16 | D,8 x8 | G,,4 F,,4 x8 | E,,8 x8 | F,,4 D,,4 x8 | %16
 [G,,G,]8 x8 | C,,8 C,16 E,8 F,8 || x16 | D,8 x8 | G,,4 F,,4 x8 | E,,8 x8 | F,,4 D,,4 x8 | %23
 [G,,G,]8 C,,8 C,16 | E,8 x8 | F,8 x8 || x16 || D,8 x8 | G,,4 F,,4 x8 | %29
[K:E] E,,8 =F,,4 =D,,4 [=G,,=G,]8 =C,,8 || E,16 | E,8 E,8 | B,,16 | B,,8 C,4 C,4 | G,,8 A,,4 C,4 | %35
 B,,8 E,8 | E,16 || E,8 E,8 | B,,16 | B,,8 C,4 C,4 G,,8 A,,4 C,4 | B,,8 E,8 || x16 | E,16 | %43
 E,8 E,8 | B,,16 | B,,8 C,4 C,4 G,,8 A,,4 C,4 | x16 | B,,8 E,8 || E,16 | E,8 E,8 | B,,16 | %51
 B,,8 C,4 C,4 | G,,8 A,,4 C,4 | B,,8 E,8 |[K:C] x16 x32 | E,8 x8 | x16 || D,8 x8 E,,8 F,,4 D,,4 | %58
 [G,,G,]8 C,,8 || x16 | E,8 x8 x16 | x16 | x16 | D,8 x8 E,,8 F,,4 D,,4 || [G,,G,]8 C,,8 | x16 || %66
 x16 | E,8 x8 x14 | x16 | D,8 x8 E,,8 F,,4 D,,4 | [G,,G,]8 C,,8 | x16 || x16 | x16 || x16 x14 | %75
 x16 | x16 | x16 x8 || x16 E,,4 D,,4 | C,,16 | x16 | x16 | x16 | x16 || x16 | x16 || x16 | x16 | %88
 x16 | x16 || x16 | x16 || x16 | x16 | x16 | x16 | x24 | x16 | %98

